src/assets/deletesensor.svg

<?xml version="1.0" encoding="UTF-8" standalone="no"?>
<!-- Uploaded to: SVG Repo, www.svgrepo.com, Transformed by: SVG Repo Mixer Tools -->

<svg
   width="800px"
   height="800px"
   viewBox="-2.4 -2.4 28.80 28.80"
   fill="none"
   stroke="#ffffff"
   stroke-width="0.00024000000000000003"
   version="1.1"
   id="svg13"
   sodipodi:docname="deletesensor.svg"
   inkscape:version="1.2.2 (b0a8486541, 2022-12-01)"
   xmlns:inkscape="http://www.inkscape.org/namespaces/inkscape"
   xmlns:sodipodi="http://sodipodi.sourceforge.net/DTD/sodipodi-0.dtd"
   xmlns="http://www.w3.org/2000/svg"
   xmlns:svg="http://www.w3.org/2000/svg">
  <defs
     id="defs17" />
  <sodipodi:namedview
     id="namedview15"
     pagecolor="#050505"
     bordercolor="#000000"
     borderopacity="0.25"
     inkscape:showpageshadow="2"
     inkscape:pageopacity="0"
     inkscape:pagecheckerboard="0"
     inkscape:deskcolor="#d1d1d1"
     showgrid="false"
     inkscape:zoom="1.03625"
     inkscape:cx="397.10495"
     inkscape:cy="476.71894"
     inkscape:window-width="1920"
     inkscape:window-height="1009"
     inkscape:window-x="-8"
     inkscape:window-y="-8"
     inkscape:window-maximized="1"
     inkscape:current-layer="svg13" />
  <g
     id="SVGRepo_bgCarrier"
     stroke-width="0"
     style="fill:none" />
  <g
     id="SVGRepo_tracerCarrier"
     stroke-linecap="round"
     stroke-linejoin="round"
     stroke="#CCCCCC"
     stroke-width="0.048"
     style="fill:none" />
  <g
     id="SVGRepo_iconCarrier"
     style="fill:#ffffff">
    <path
       d="M14.1297 11.3401C14.5197 9.70008 13.0897 8.27003 11.4497 8.66003C10.6797 8.85003 10.0497 9.48005 9.85974 10.2501C9.46974 11.8901 10.8997 13.32 12.5397 12.93C13.3197 12.74 13.9497 12.1101 14.1297 11.3401Z"
       fill="#ffffff"
       id="path4"
       style="fill:#ffffff" />
    <path
       opacity="0.4"
       d="M6.02094 17.97C5.84093 17.97 5.65093 17.9 5.51093 17.77C3.57093 15.97 2.46094 13.43 2.46094 10.79C2.46094 5.52998 6.74093 1.25 12.0009 1.25C17.2609 1.25 21.5409 5.52998 21.5409 10.79C21.5409 13.45 20.4709 15.91 18.5309 17.74C18.2309 18.02 17.7509 18.01 17.4709 17.71C17.1909 17.41 17.2009 16.93 17.5009 16.65C19.1409 15.11 20.0409 13.04 20.0409 10.8C20.0409 6.36999 16.4309 2.76001 12.0009 2.76001C7.57093 2.76001 3.96094 6.36999 3.96094 10.8C3.96094 13.06 4.87093 15.14 6.53093 16.68C6.83093 16.96 6.85094 17.44 6.57094 17.74C6.42094 17.89 6.22094 17.97 6.02094 17.97Z"
       fill="#ffffff"
       id="path6"
       style="fill:#ffffff" />
    <path
       opacity="0.4"
       d="M15.9995 15.3C15.8195 15.3 15.6295 15.23 15.4895 15.1C15.1895 14.82 15.1695 14.34 15.4595 14.04C16.2895 13.16 16.7495 12 16.7495 10.8C16.7495 8.18005 14.6195 6.06006 12.0095 6.06006C9.39952 6.06006 7.26953 8.19005 7.26953 10.8C7.26953 12.01 7.72952 13.16 8.55952 14.04C8.83952 14.34 8.82953 14.82 8.52953 15.1C8.22953 15.39 7.74953 15.3701 7.46953 15.0701C6.37953 13.9101 5.76953 12.39 5.76953 10.8C5.76953 7.36005 8.56952 4.56006 12.0095 4.56006C15.4495 4.56006 18.2495 7.36005 18.2495 10.8C18.2495 12.39 17.6495 13.9101 16.5495 15.0701C16.3995 15.2201 16.1995 15.3 15.9995 15.3Z"
       fill="#ffffff"
       id="path8"
       style="fill:#ffffff" />
    <path
       d="M10.3007 16.66L8.86071 18.4501C7.72071 19.8801 8.73071 21.99 10.5607 21.99H13.4307C15.2607 21.99 16.2807 19.8701 15.1307 18.4501L13.6907 16.66C12.8307 15.57 11.1707 15.57 10.3007 16.66Z"
       fill="#ffffff"
       id="path10"
       style="fill:#ffffff" />
  </g>
  <g
     id="SVGRepo_iconCarrier-9"
     transform="matrix(0.38881553,0,0,0.38881553,16.088859,17.304781)"
     style="fill:#ffffff">
    <path
       opacity="0.4"
       d="M 12,22 C 17.5228,22 22,17.5228 22,12 22,6.47715 17.5228,2 12,2 6.47715,2 2,6.47715 2,12 2,17.5228 6.47715,22 12,22 Z"
       fill="#292d32"
       id="path179"
       style="fill:#ffffff" />
    <path
       d="m 13.0594,12.0001 2.3,-2.29999 c 0.29,-0.29 0.29,-0.77 0,-1.06 -0.29,-0.29 -0.77,-0.29 -1.06,0 l -2.3,2.29999 -2.30003,-2.29999 c -0.29,-0.29 -0.77,-0.29 -1.05999,0 -0.29,0.29 -0.29,0.77 0,1.06 l 2.30002,2.29999 -2.30002,2.3 c -0.29,0.29 -0.29,0.77 0,1.06 0.15,0.15 0.33999,0.22 0.52999,0.22 0.19,0 0.38,-0.07 0.53,-0.22 l 2.30003,-2.3 2.3,2.3 c 0.15,0.15 0.34,0.22 0.53,0.22 0.19,0 0.38,-0.07 0.53,-0.22 0.29,-0.29 0.29,-0.77 0,-1.06 z"
       fill="#292d32"
       id="path181"
       style="fill:#ffffff" />
  </g>
</svg>

<?xml version="1.0" encoding="UTF-8"?>
<svg width="800px" height="800px" stroke="#ffffff" stroke-width=".00024" version="1.1" viewBox="-2.4 -2.4 28.8 28.8" xmlns="http://www.w3.org/2000/svg">
<g fill="#fff">
<path d="m14.13 11.34c0.39-1.64-1.04-3.0701-2.68-2.6801-0.77 0.19-1.4 0.82002-1.59 1.5901-0.39 1.64 1.04 3.0699 2.68 2.6799 0.78-0.19 1.41-0.8199 1.59-1.5899z"/>
<path d="m6.0209 17.97c-0.18001 0-0.37001-0.07-0.51001-0.2-1.94-1.8-3.05-4.34-3.05-6.98 0-5.26 4.28-9.54 9.54-9.54 5.26 0 9.54 4.28 9.54 9.54 0 2.66-1.07 5.12-3.01 6.95-0.3 0.28-0.78 0.27-1.06-0.03s-0.27-0.78 0.03-1.06c1.64-1.54 2.54-3.61 2.54-5.85 0-4.43-3.61-8.04-8.04-8.04-4.43 0-8.04 3.61-8.04 8.04 0 2.26 0.90999 4.34 2.57 5.88 0.3 0.28 0.32001 0.76 0.04001 1.06-0.15 0.15-0.35 0.23-0.55 0.23z" opacity=".4"/>
<path d="m16 15.3c-0.18 0-0.37-0.07-0.51-0.2-0.3-0.28-0.32-0.76-0.03-1.06 0.83-0.88 1.29-2.04 1.29-3.24 0-2.62-2.13-4.7399-4.74-4.7399-2.61 0-4.74 2.13-4.74 4.7399 0 1.21 0.45999 2.36 1.29 3.24 0.28 0.3 0.27001 0.78-0.02999 1.06-0.3 0.29-0.78 0.2701-1.06-0.0299-1.09-1.16-1.7-2.6801-1.7-4.2701 0-3.44 2.8-6.2399 6.24-6.2399 3.44 0 6.24 2.8 6.24 6.2399 0 1.59-0.6 3.1101-1.7 4.2701-0.15 0.15-0.35 0.2299-0.55 0.2299z" opacity=".4"/>
<path d="m10.301 16.66-1.44 1.7901c-1.14 1.43-0.13 3.5399 1.7 3.5399h2.87c1.83 0 2.85-2.1199 1.7-3.5399l-1.44-1.7901c-0.86-1.09-2.52-1.09-3.39 0z"/>
</g>
<g transform="matrix(.38882 0 0 .38882 16.089 17.305)" fill="#fff">
<path d="m12 22c5.5228 0 10-4.4772 10-10 0-5.5228-4.4772-10-10-10-5.5228 0-10 4.4772-10 10 0 5.5228 4.4772 10 10 10z" opacity=".4"/>
<path d="m13.059 12 2.3-2.3c0.29-0.29 0.29-0.77 0-1.06s-0.77-0.29-1.06 0l-2.3 2.3-2.3-2.3c-0.29-0.29-0.77-0.29-1.06 0-0.29 0.29-0.29 0.77 0 1.06l2.3 2.3-2.3 2.3c-0.29 0.29-0.29 0.77 0 1.06 0.15 0.15 0.33999 0.22 0.52999 0.22s0.38-0.07 0.53-0.22l2.3-2.3 2.3 2.3c0.15 0.15 0.34 0.22 0.53 0.22s0.38-0.07 0.53-0.22c0.29-0.29 0.29-0.77 0-1.06z"/>
</g>
</svg>
